X: 44
T: Soldiers dance after the Battle
%R: reel, march
B: Urbani & Liston "A Selection of Scotch, English Irish, and Foreign Airs", Edinburgh 1800, p.17 #3
F: http://www.vwml.org/browse/browse-collections-dance-tune-books/browse-urbani1800
Z: 2014 John Chambers <jc:trillian.mit.edu>
N: There was no time signature for this tune.
N: The 2nd strain has initial repeat but no final repeat; not fixed.
M: C
L: 1/8
K: G
e |\
dG (e/d/c/B/) dGGe | dBgB dAAB |\
dG (e/d/c/B/) dGBg | fefd g2g :: e |\
dBgB dgBg | dBgB dAAB |
dBgB dgBg | fefd g2ge |\
dG (e/d/c/B/) dGGe | dBgB dAAB |\
dG (e/d/c/B/) dG (d/b/a/g/) | fefd g2g |]

%%sep 1 1 500
%%sep 1 1 500
